X:1
T: O'er the Water to Charlie
C:
R:Jig
Q:180
K:D
M:6/8
L:1/16
|:F2|D4A2 A2F2A2|Bcd2F2 E4D2|D2F2A2 A2F2A2|B3AB2 d2e2f2|
D2F2A2 A2F2A2|B3cd2 A2F2D2|d2f2d2 e2c2A2|B6d6|
d2f2d2 e2c2A2|d4F2 E4D2|d2f2d2 e2c2A2|B6d4A2|
d2f2d2 e2c2A2|d6 F2E2D2|D4A2 A2F2A2|B6d6:|
